!!!COA:	Josquin des Prez
!!!CDT:	~1450-1521/08/27
!!!OTL@@LAT:	In pace in idipsum
!!!AGN:	Motet
!!!SCT:	NJE 17.5
!!!SCA:	New Josquin Edition 17.5
!!!voices:	4
**kern	**kern	**kern	**kern
*staff4	*staff3	*staff2	*staff1
*Ivox	*Ivox	*Ivox	*Ivox
*I"Bassus	*I"Tenor	*I"Altus	*I"Superius
*I'B	*I'T	*I'A	*I'S
*clefF4	*clefGv2	*clefGv2	*clefG2
*k[]	*k[]	*k[]	*k[]
*M2/1	*M2/1	*M2/1	*M2/1
*met(C|)	*met(C|)	*met(C|)	*met(C|)
=1-	=1-	=1-	=1-
0r	0r	0r	0e
=2	=2	=2	=2
0r	0E	0r	1.g
.	.	.	4f/
.	.	.	4e/
=3	=3	=3	=3
0r	0G	0r	0d
=4	=4	=4	=4
0AA	0A	0r	1.c
.	.	.	2d/
=5	=5	=5	=5
0C	1.G	0r	0e
.	[2A/	.	.
=6	=6	=6	=6
0D	4A/]	0A	1.f
.	4G/	.	.
.	4F/	.	.
.	4E/	.	.
.	1F	.	.
.	.	.	4e/
.	.	.	4d/
=7	=7	=7	=7
1C	0G	0c	1e
1E	.	.	[1g
=8	=8	=8	=8
0D	0A	0d	1g]
.	.	.	1f#i
=9	=9	=9	=9
00GG;	00G;	00B;	00g;
=10	=10	=10	=10
0G	0r	0B	0r
=11	=11	=11	=11
0A	0r	0c	0r
=12	=12	=12	=12
1G	0r	1.d	0b
[1G	.	.	.
.	.	4c\	.
.	.	4B\	.
=13	=13	=13	=13
2G\]	0r	2A/	0cc
4F\	.	2G/	.
4E\	.	.	.
1F	.	1A	.
=14	=14	=14	=14
1r	0B	0G	1.dd
1G	.	.	.
.	.	.	4cc\
.	.	.	4b\
=15	=15	=15	=15
1F	0c	1r	1a
1E	.	1G	1g
=16	=16	=16	=16
1.D	0d	0A	2.f/
.	.	.	4g/
.	.	.	2a/
4C/	.	.	2d/
4BB/	.	.	.
=17	=17	=17	=17
1AA	1c	1A	1e
1GG	1B	[1d	[1g
=18	=18	=18	=18
0D	0A	1d]	2g/]
.	.	.	4f#i/
.	.	.	4e/
.	.	1d	1f#i
=19	=19	=19	=19
00GG;	00G;	00B;	00g;
=20	=20	=20	=20
0r	0r	0c	0r
=21	=21	=21	=21
0r	0r	1G	1r
.	.	[1A	[1cc
=22	=22	=22	=22
0r	0r	2A/]	1cc]
.	.	4G/	.
.	.	4F/	.
.	.	1E	1g
=23	=23	=23	=23
0r	0c	2.F/	2.a/
.	.	4G/	4g/
.	.	4A/	2f/
.	.	4B\	.
.	.	[2c\	2e/
=24	=24	=24	=24
1r	1G	2c\]	1d
.	.	2B\	.
[1F	[1A	[1c	[1c
=25	=25	=25	=25
1F]	1A]	1c]	2c/]
.	.	.	1f
1C	1G	1c	.
.	.	.	[2e/
=26	=26	=26	=26
0D	0F	[0A	2e/]
.	.	.	4d/
.	.	.	4c/
.	.	.	1d
=27	=27	=27	=27
[0AA	[0E	0A_	[0e
=28	=28	=28	=28
0AA]	0E]	0A]	0e]
=29	=29	=29	=29
1D	1F	[0A	1d
2AA/	2E/	.	2c/
[2D\	[2F/	.	[2d/
=30	=30	=30	=30
1D]	2F/]	0A]	2d/]
.	4E/	.	4c#i/
.	4D/	.	4B/
1AA	1E	.	1c#i
=31	=31	=31	=31
1r	0D	2.F/	[0d
.	.	4G/	.
[1D	.	2A/	.
.	.	[2B-i\	.
=32	=32	=32	=32
2D\]	0r	4B-\]	0d]
.	.	4A/	.
2C/	.	1A	.
1BB	.	.	.
.	.	2G/	.
=33	=33	=33	=33
4AA/	1A	1A	0r
4BB/	.	.	.
4C/	.	.	.
4D\	.	.	.
2E\	2G/	1r	.
[2F\	[2A/	.	.
=34	=34	=34	=34
2F\]	2A/]	0r	0r
4E\	4G/	.	.
4D\	4F/	.	.
1E	1G	.	.
=35	=35	=35	=35
0F	0F	2.A/	0a
.	.	4B\	.
.	.	2c\	.
.	.	[2d\	.
=36	=36	=36	=36
0E	0r	2d\]	0g
.	.	4c#i\	.
.	.	4B\	.
.	.	1c#i	.
=37	=37	=37	=37
1.D	[0A	0d	0f
4C/	.	.	.
4BB/	.	.	.
=38	=38	=38	=38
2.AA/	0A]	2.c\	[0a
4BB/	.	4B\	.
2C/	.	4A/	.
.	.	4G/	.
2D\	.	2F/	.
=39	=39	=39	=39
2C/	2.A/	2E/	0a]
1D	.	2.F/	.
.	4B\	.	.
.	2c\	.	.
.	.	4E/	.
4C/	2d\	4F/	.
4BB/	.	4G/	.
=40	=40	=40	=40
2AA/	2c\	2A/	2a/
2.GG/	1d	1D	1b
4AA/	.	.	.
4BB/	4c\	[2d\	4a/
4C/	4B\	.	4g/
=41	=41	=41	=41
2D\	2A/	2d\]	2f#i/
2E\	2G/	2c\	1g
1D	1A	[1dl	.
.	.	.	2f#i/
=42	=42	=42	=42
0GGl	0Gl	0d]	0gl
==	==	==	==
*-	*-	*-	*-
!!!RDF**kern: l=long note in original notation
!!!RDF**kern: i=editorial accidental
!!!ENC:	Joel Chapman 2011/12/26
!!!END:	2011/12/26/
!!!EED:	Jesse Rodin
!!!EEV:	2012/01/24/
!!attribution-level@Jos: 4 (questionable)
!!!ONB:	Translated from MusicXML and edited on 2012/01/24/ by Craig Sapp
!!muse2ps: C^@{COA}?\n@{SCT}^i2I150v90,90,90,150Q16
